X:1
T: Coming thro' Kilbeen
C:Alexander Walker
R:Strathspey
Q: 128
K:Bb
M:4/4
L:1/16
|:F2|B3c B3F GB3 F3D|E3G F3D GC3 C3A|B3c B3F GB3 F3D|E3g f3e dB3 B2F2|
B3c B3F GB3 F3D|E3G F3D GC3 C3A|B3c B3F GB3 F3D|E3g f3e dB3 B2f2|
d3B F3B D3B F3B|d3B F3B dc3 c3f|d3B F3B D3B F3B|df3 b3f dB3 B3f|
b3B a3A g3G f3F|e3E d3D cC3 C3E|DF3 F3D EG3 G3E|eg3 f3e dB3 B2:|
